small/extra/apps/standard/ooo-calc.svg

<?xml version="1.0" encoding="UTF-8" standalone="no"?>
<!-- Created with Inkscape (http://www.inkscape.org/) -->

<svg
   xmlns:dc="http://purl.org/dc/elements/1.1/"
   xmlns:cc="http://creativecommons.org/ns#"
   xmlns:rdf="http://www.w3.org/1999/02/22-rdf-syntax-ns#"
   xmlns:svg="http://www.w3.org/2000/svg"
   xmlns="http://www.w3.org/2000/svg"
   xmlns:inkscape="http://www.inkscape.org/namespaces/inkscape"
   version="1.1"
   width="100%"
   height="100%"
   viewBox="0 0 512 512"
   id="svg2">
  <metadata
     id="metadata173">
    <rdf:RDF>
      <cc:Work
         rdf:about="">
        <dc:format>image/svg+xml</dc:format>
        <dc:type
           rdf:resource="http://purl.org/dc/dcmitype/StillImage" />
      </cc:Work>
    </rdf:RDF>
  </metadata>
  <defs
     id="defs4" />
  <path
     d="M 26,0 C 11.603,0 0,11.603 0,26 v 460 c 0,14.397 11.603,26 26,26 h 460 c 14.397,0 26,-11.603 26,-26 V 26 C 512,11.603 500.397,0 486,0 H 26"
     inkscape:connector-curvature="0"
     id="path19"
     style="fill:#a0d200" />
  <path
     d="M 26,0 C 11.603,0 0,11.603 0,26 v 460 c 0,14.397 11.603,26 26,26 H 199 C 214.383,438.55 208.774,366.4 185.88,280.94 155.377,167.1 144.51,89.67 173.85,0 H 26.01"
     inkscape:connector-curvature="0"
     id="path21"
     style="fill:#1f467c" />
  <text
     x="-161.46001"
     y="254.17999"
     id="text23"
     style="font-size:129.22999573px;line-height:125%;letter-spacing:0;word-spacing:0;font-family:Gentium Book Basic">
    <tspan
       x="-161.46001"
       y="254.17999"
       id="tspan25" />
  </text>
  <text
     x="156.84"
     y="670.83002"
     transform="scale(4.0128,0.2492)"
     id="text27"
     style="font-size:46.95399857px;text-anchor:middle;font-family:Arial" />
  <text
     x="419.81"
     y="174.17999"
     id="text29"
     style="font-size:129.22999573px;line-height:125%;letter-spacing:0;word-spacing:0;font-family:Gentium Book Basic">
    <tspan
       x="419.81"
       y="174.17999"
       id="tspan31" />
  </text>
  <text
     x="301.69"
     y="349.79999"
     transform="scale(4.0128,0.2492)"
     id="text33"
     style="font-size:46.95399857px;text-anchor:middle;font-family:Arial" />
  <text
     x="-651.77002"
     y="-7.0780001"
     id="text35"
     style="font-size:129.22999573px;line-height:125%;letter-spacing:0;word-spacing:0;font-family:Gentium Book Basic">
    <tspan
       x="-651.77002"
       y="-7.0780001"
       id="tspan37" />
  </text>
  <text
     x="34.654999"
     y="-377.54999"
     transform="scale(4.0128,0.2492)"
     id="text39"
     style="font-size:46.95399857px;text-anchor:middle;font-family:Arial" />
  <text
     x="446.28"
     y="-223.55"
     id="text41"
     style="font-size:129.22999573px;line-height:125%;letter-spacing:0;word-spacing:0;font-family:Gentium Book Basic">
    <tspan
       x="446.28"
       y="-223.55"
       id="tspan43" />
  </text>
  <text
     x="308.29001"
     y="-1246.22"
     transform="scale(4.0128,0.2492)"
     id="text45"
     style="font-size:46.95399857px;text-anchor:middle;font-family:Arial" />
  <text
     x="1027.55"
     y="-303.56"
     id="text47"
     style="font-size:129.22999573px;line-height:125%;letter-spacing:0;word-spacing:0;font-family:Gentium Book Basic">
    <tspan
       x="1027.55"
       y="-303.56"
       id="tspan49" />
  </text>
  <text
     x="453.14001"
     y="-1567.26"
     transform="scale(4.0128,0.2492)"
     id="text51"
     style="font-size:46.95399857px;text-anchor:middle;font-family:Arial" />
  <text
     x="638.42999"
     y="-775.96002"
     id="text53"
     style="font-size:129.22999573px;line-height:125%;letter-spacing:0;word-spacing:0;font-family:Gentium Book Basic">
    <tspan
       x="638.42999"
       y="-775.96002"
       id="tspan55" />
  </text>
  <text
     x="356.17001"
     y="-3462.9099"
     transform="scale(4.0128,0.2492)"
     id="text57"
     style="font-size:46.95399857px;text-anchor:middle;font-family:Arial" />
  <text
     x="1219.6899"
     y="-855.96002"
     id="text59"
     style="font-size:129.22999573px;line-height:125%;letter-spacing:0;word-spacing:0;font-family:Gentium Book Basic">
    <tspan
       x="1219.6899"
       y="-855.96002"
       id="tspan61" />
  </text>
  <text
     x="501.01999"
     y="-3783.9399"
     transform="scale(4.0128,0.2492)"
     id="text63"
     style="font-size:46.95399857px;text-anchor:middle;font-family:Arial" />
  <g
     id="g65"
     style="line-height:125%;letter-spacing:0;word-spacing:0;font-family:Gentium Book Basic">
    <text
       x="-613.10999"
       y="558.76001"
       id="text67"
       style="font-size:208.33000183px">
      <tspan
         x="-613.10999"
         y="558.76001"
         id="tspan69" />
    </text>
    <text
       x="1473.85"
       y="230.42"
       id="text71"
       style="font-size:129.22999573px">
      <tspan
         x="1473.85"
         y="230.42"
         id="tspan73" />
    </text>
  </g>
  <text
     x="564.37"
     y="575.47998"
     transform="scale(4.0128,0.2492)"
     id="text75"
     style="font-size:46.95399857px;text-anchor:middle;font-family:Arial" />
  <text
     x="2055.1201"
     y="150.42"
     id="text77"
     style="font-size:129.22999573px;line-height:125%;letter-spacing:0;word-spacing:0;font-family:Gentium Book Basic">
    <tspan
       x="2055.1201"
       y="150.42"
       id="tspan79" />
  </text>
  <text
     x="709.21997"
     y="254.45"
     transform="scale(4.0128,0.2492)"
     id="text81"
     style="font-size:46.95399857px;text-anchor:middle;font-family:Arial" />
  <text
     x="983.53998"
     y="-30.84"
     id="text83"
     style="font-size:129.22999573px;line-height:125%;letter-spacing:0;word-spacing:0;font-family:Gentium Book Basic">
    <tspan
       x="983.53998"
       y="-30.84"
       id="tspan85" />
  </text>
  <text
     x="442.17999"
     y="-472.91"
     transform="scale(4.0128,0.2492)"
     id="text87"
     style="font-size:46.95399857px;text-anchor:middle;font-family:Arial" />
  <text
     x="2081.5901"
     y="-247.31"
     id="text89"
     style="font-size:129.22999573px;line-height:125%;letter-spacing:0;word-spacing:0;font-family:Gentium Book Basic">
    <tspan
       x="2081.5901"
       y="-247.31"
       id="tspan91" />
  </text>
  <text
     x="715.82001"
     y="-1341.5699"
     transform="scale(4.0128,0.2492)"
     id="text93"
     style="font-size:46.95399857px;text-anchor:middle;font-family:Arial" />
  <text
     x="2662.8601"
     y="-327.32001"
     id="text95"
     style="font-size:129.22999573px;line-height:125%;letter-spacing:0;word-spacing:0;font-family:Gentium Book Basic">
    <tspan
       x="2662.8601"
       y="-327.32001"
       id="tspan97" />
  </text>
  <text
     x="860.65997"
     y="-1662.61"
     transform="scale(4.0128,0.2492)"
     id="text99"
     style="font-size:46.95399857px;text-anchor:middle;font-family:Arial" />
  <text
     x="2273.74"
     y="-799.71997"
     id="text101"
     style="font-size:129.22999573px;line-height:125%;letter-spacing:0;word-spacing:0;font-family:Gentium Book Basic">
    <tspan
       x="2273.74"
       y="-799.71997"
       id="tspan103" />
  </text>
  <text
     x="763.69"
     y="-3558.26"
     transform="scale(4.0128,0.2492)"
     id="text105"
     style="font-size:46.95399857px;text-anchor:middle;font-family:Arial" />
  <text
     x="2855"
     y="-879.71997"
     id="text107"
     style="font-size:129.22999573px;line-height:125%;letter-spacing:0;word-spacing:0;font-family:Gentium Book Basic">
    <tspan
       x="2855"
       y="-879.71997"
       id="tspan109" />
  </text>
  <text
     x="908.53998"
     y="-3879.29"
     transform="scale(4.0128,0.2492)"
     id="text111"
     style="font-size:46.95399857px;text-anchor:middle;font-family:Arial" />
  <g
     id="g113"
     style="line-height:125%;letter-spacing:0;word-spacing:0;font-family:Gentium Book Basic">
    <text
       x="1022.2"
       y="535"
       id="text115"
       style="font-size:208.33000183px">
      <tspan
         x="1022.2"
         y="535"
         id="tspan117" />
    </text>
    <text
       x="861.95001"
       y="1.6569999"
       id="text119"
       style="font-size:129.22999573px">
      <tspan
         x="861.95001"
         y="1.6569999"
         id="tspan121" />
    </text>
  </g>
  <text
     x="411.88"
     y="-342.51001"
     transform="scale(4.0128,0.2492)"
     id="text123"
     style="font-size:46.95399857px;text-anchor:middle;font-family:Arial" />
  <text
     x="1443.22"
     y="-78.339996"
     id="text125"
     style="font-size:129.22999573px;line-height:125%;letter-spacing:0;word-spacing:0;font-family:Gentium Book Basic">
    <tspan
       x="1443.22"
       y="-78.339996"
       id="tspan127" />
  </text>
  <text
     x="556.72998"
     y="-663.53998"
     transform="scale(4.0128,0.2492)"
     id="text129"
     style="font-size:46.95399857px;text-anchor:middle;font-family:Arial" />
  <text
     x="371.64001"
     y="-259.60001"
     id="text131"
     style="font-size:129.22999573px;line-height:125%;letter-spacing:0;word-spacing:0;font-family:Gentium Book Basic">
    <tspan
       x="371.64001"
       y="-259.60001"
       id="tspan133" />
  </text>
  <text
     x="289.69"
     y="-1390.89"
     transform="scale(4.0128,0.2492)"
     id="text135"
     style="font-size:46.95399857px;text-anchor:middle;font-family:Arial" />
  <text
     x="1469.6899"
     y="-476.07001"
     id="text137"
     style="font-size:129.22999573px;line-height:125%;letter-spacing:0;word-spacing:0;font-family:Gentium Book Basic">
    <tspan
       x="1469.6899"
       y="-476.07001"
       id="tspan139" />
  </text>
  <text
     x="563.33002"
     y="-2259.5601"
     transform="scale(4.0128,0.2492)"
     id="text141"
     style="font-size:46.95399857px;text-anchor:middle;font-family:Arial" />
  <text
     x="2050.96"
     y="-556.08002"
     id="text143"
     style="font-size:129.22999573px;line-height:125%;letter-spacing:0;word-spacing:0;font-family:Gentium Book Basic">
    <tspan
       x="2050.96"
       y="-556.08002"
       id="tspan145" />
  </text>
  <text
     x="708.17999"
     y="-2580.6001"
     transform="scale(4.0128,0.2492)"
     id="text147"
     style="font-size:46.95399857px;text-anchor:middle;font-family:Arial" />
  <text
     x="1661.84"
     y="-1028.48"
     id="text149"
     style="font-size:129.22999573px;line-height:125%;letter-spacing:0;word-spacing:0;font-family:Gentium Book Basic">
    <tspan
       x="1661.84"
       y="-1028.48"
       id="tspan151" />
  </text>
  <text
     x="611.21002"
     y="-4476.25"
     transform="scale(4.0128,0.2492)"
     id="text153"
     style="font-size:46.95399857px;text-anchor:middle;font-family:Arial" />
  <text
     x="2243.1001"
     y="-1108.48"
     id="text155"
     style="font-size:129.22999573px;line-height:125%;letter-spacing:0;word-spacing:0;font-family:Gentium Book Basic">
    <tspan
       x="2243.1001"
       y="-1108.48"
       id="tspan157" />
  </text>
  <text
     x="756.06"
     y="-4797.2798"
     transform="scale(4.0128,0.2492)"
     id="text159"
     style="font-size:46.95399857px;text-anchor:middle;font-family:Arial" />
  <text
     x="410.29999"
     y="306.23999"
     id="text161"
     style="font-size:208.33000183px;line-height:125%;letter-spacing:0;word-spacing:0;font-family:Gentium Book Basic">
    <tspan
       x="410.29999"
       y="306.23999"
       id="tspan163" />
  </text>
  <g
     id="g165"
     style="color:#000000">
    <path
       d="m 66.75,56.75 51.53,51.53 H 92.53 v 25.813 L 41,82.563 v 346.88 l 25.813,25.813 H 66.75 l 56.75,56.75 H 486 c 14.397,0 26,-11.603 26,-26 v -362.5 L 445.25,56.756 H 66.75"
       inkscape:connector-curvature="0"
       id="path167"
       style="opacity:0.25" />
    <path
       d="m 66.746495,56.748116 a 25.767041,25.767041 0 0 0 -25.74648,25.80024 V 429.45 a 25.767041,25.767041 0 0 0 25.74648,25.80024 H 445.25 A 25.767041,25.767041 0 0 0 470.9966,429.45 V 82.55 A 25.767041,25.767041 0 0 0 445.25,56.74976 H 66.746 m 25.8,51.55 H 230.26 V 227.99 H 92.55 v -119.7 m 189.21,0 h 137.72 v 119.7 H 281.76 V 108.29 M 92.55,279.48 H 230.26 V 403.71 H 92.55 V 279.48 m 189.21,0 H 419.48 V 403.71 H 281.76 V 279.48"
       inkscape:connector-curvature="0"
       id="path169"
       style="fill:#ffffff" />
  </g>
</svg>

<?xml version="1.0" encoding="UTF-8" standalone="no"?>
<!-- Created with Inkscape (http://www.inkscape.org/) -->
<svg id="svg2" xmlns:rdf="http://www.w3.org/1999/02/22-rdf-syntax-ns#" xmlns="http://www.w3.org/2000/svg" height="100%" width="100%" version="1.1" xmlns:cc="http://creativecommons.org/ns#" viewBox="0 0 512 512" xmlns:dc="http://purl.org/dc/elements/1.1/">
 <metadata id="metadata173">
  <rdf:RDF>
   <cc:Work rdf:about="">
    <dc:format>image/svg+xml</dc:format>
    <dc:type rdf:resource="http://purl.org/dc/dcmitype/StillImage"/>
   </cc:Work>
  </rdf:RDF>
 </metadata>
 <path id="path19" d="m26 0c-14.397 0-26 11.603-26 26v460c0 14.397 11.603 26 26 26h460c14.397 0 26-11.603 26-26v-460c0-14.397-11.6-26-26-26h-460" fill="#a0d200"/>
 <path id="path21" d="m26 0c-14.397 0-26 11.603-26 26v460c0 14.397 11.603 26 26 26h173c15.38-73.45 9.77-145.6-13.12-231.06-30.5-113.84-41.37-191.27-12.03-280.94h-147.84" fill="#1f467c"/>
 <text id="text23" style="word-spacing:0;letter-spacing:0" font-size="129.23px" line-height="125%" y="254.17999" x="-161.46001" font-family="Gentium Book Basic">
  <tspan id="tspan25" y="254.17999" x="-161.46001"/>
 </text>
 <text id="text27" style="text-anchor:middle" transform="scale(4.0128 .2492)" font-size="46.954px" y="670.83002" x="156.84" font-family="Arial"/>
 <text id="text29" style="word-spacing:0;letter-spacing:0" font-size="129.23px" line-height="125%" y="174.17999" x="419.81" font-family="Gentium Book Basic">
  <tspan id="tspan31" y="174.17999" x="419.81"/>
 </text>
 <text id="text33" style="text-anchor:middle" transform="scale(4.0128 .2492)" font-size="46.954px" y="349.79999" x="301.69" font-family="Arial"/>
 <text id="text35" style="word-spacing:0;letter-spacing:0" font-size="129.23px" line-height="125%" y="-7.0780001" x="-651.77002" font-family="Gentium Book Basic">
  <tspan id="tspan37" y="-7.0780001" x="-651.77002"/>
 </text>
 <text id="text39" style="text-anchor:middle" transform="scale(4.0128 .2492)" font-size="46.954px" y="-377.54999" x="34.654999" font-family="Arial"/>
 <text id="text41" style="word-spacing:0;letter-spacing:0" font-size="129.23px" line-height="125%" y="-223.55" x="446.28" font-family="Gentium Book Basic">
  <tspan id="tspan43" y="-223.55" x="446.28"/>
 </text>
 <text id="text45" style="text-anchor:middle" transform="scale(4.0128 .2492)" font-size="46.954px" y="-1246.22" x="308.29001" font-family="Arial"/>
 <text id="text47" style="word-spacing:0;letter-spacing:0" font-size="129.23px" line-height="125%" y="-303.56" x="1027.55" font-family="Gentium Book Basic">
  <tspan id="tspan49" y="-303.56" x="1027.55"/>
 </text>
 <text id="text51" style="text-anchor:middle" transform="scale(4.0128 .2492)" font-size="46.954px" y="-1567.26" x="453.14001" font-family="Arial"/>
 <text id="text53" style="word-spacing:0;letter-spacing:0" font-size="129.23px" line-height="125%" y="-775.96002" x="638.42999" font-family="Gentium Book Basic">
  <tspan id="tspan55" y="-775.96002" x="638.42999"/>
 </text>
 <text id="text57" style="text-anchor:middle" transform="scale(4.0128 .2492)" font-size="46.954px" y="-3462.9099" x="356.17001" font-family="Arial"/>
 <text id="text59" style="word-spacing:0;letter-spacing:0" font-size="129.23px" line-height="125%" y="-855.96002" x="1219.6899" font-family="Gentium Book Basic">
  <tspan id="tspan61" y="-855.96002" x="1219.6899"/>
 </text>
 <text id="text63" style="text-anchor:middle" transform="scale(4.0128 .2492)" font-size="46.954px" y="-3783.9399" x="501.01999" font-family="Arial"/>
 <g id="g65" style="word-spacing:0;letter-spacing:0" font-family="Gentium Book Basic" line-height="125%">
  <text id="text67" y="558.76001" x="-613.10999" font-size="208.33px">
   <tspan id="tspan69" y="558.76001" x="-613.10999"/>
  </text>
  <text id="text71" y="230.42" x="1473.85" font-size="129.23px">
   <tspan id="tspan73" y="230.42" x="1473.85"/>
  </text>
 </g>
 <text id="text75" style="text-anchor:middle" transform="scale(4.0128 .2492)" font-size="46.954px" y="575.47998" x="564.37" font-family="Arial"/>
 <text id="text77" style="word-spacing:0;letter-spacing:0" font-size="129.23px" line-height="125%" y="150.42" x="2055.1201" font-family="Gentium Book Basic">
  <tspan id="tspan79" y="150.42" x="2055.1201"/>
 </text>
 <text id="text81" style="text-anchor:middle" transform="scale(4.0128 .2492)" font-size="46.954px" y="254.45" x="709.21997" font-family="Arial"/>
 <text id="text83" style="word-spacing:0;letter-spacing:0" font-size="129.23px" line-height="125%" y="-30.84" x="983.53998" font-family="Gentium Book Basic">
  <tspan id="tspan85" y="-30.84" x="983.53998"/>
 </text>
 <text id="text87" style="text-anchor:middle" transform="scale(4.0128 .2492)" font-size="46.954px" y="-472.91" x="442.17999" font-family="Arial"/>
 <text id="text89" style="word-spacing:0;letter-spacing:0" font-size="129.23px" line-height="125%" y="-247.31" x="2081.5901" font-family="Gentium Book Basic">
  <tspan id="tspan91" y="-247.31" x="2081.5901"/>
 </text>
 <text id="text93" style="text-anchor:middle" transform="scale(4.0128 .2492)" font-size="46.954px" y="-1341.5699" x="715.82001" font-family="Arial"/>
 <text id="text95" style="word-spacing:0;letter-spacing:0" font-size="129.23px" line-height="125%" y="-327.32001" x="2662.8601" font-family="Gentium Book Basic">
  <tspan id="tspan97" y="-327.32001" x="2662.8601"/>
 </text>
 <text id="text99" style="text-anchor:middle" transform="scale(4.0128 .2492)" font-size="46.954px" y="-1662.61" x="860.65997" font-family="Arial"/>
 <text id="text101" style="word-spacing:0;letter-spacing:0" font-size="129.23px" line-height="125%" y="-799.71997" x="2273.74" font-family="Gentium Book Basic">
  <tspan id="tspan103" y="-799.71997" x="2273.74"/>
 </text>
 <text id="text105" style="text-anchor:middle" transform="scale(4.0128 .2492)" font-size="46.954px" y="-3558.26" x="763.69" font-family="Arial"/>
 <text id="text107" style="word-spacing:0;letter-spacing:0" font-size="129.23px" line-height="125%" y="-879.71997" x="2855" font-family="Gentium Book Basic">
  <tspan id="tspan109" y="-879.71997" x="2855"/>
 </text>
 <text id="text111" style="text-anchor:middle" transform="scale(4.0128 .2492)" font-size="46.954px" y="-3879.29" x="908.53998" font-family="Arial"/>
 <g id="g113" style="word-spacing:0;letter-spacing:0" font-family="Gentium Book Basic" line-height="125%">
  <text id="text115" y="535" x="1022.2" font-size="208.33px">
   <tspan id="tspan117" y="535" x="1022.2"/>
  </text>
  <text id="text119" y="1.6569999" x="861.95001" font-size="129.23px">
   <tspan id="tspan121" y="1.6569999" x="861.95001"/>
  </text>
 </g>
 <text id="text123" style="text-anchor:middle" transform="scale(4.0128 .2492)" font-size="46.954px" y="-342.51001" x="411.88" font-family="Arial"/>
 <text id="text125" style="word-spacing:0;letter-spacing:0" font-size="129.23px" line-height="125%" y="-78.339996" x="1443.22" font-family="Gentium Book Basic">
  <tspan id="tspan127" y="-78.339996" x="1443.22"/>
 </text>
 <text id="text129" style="text-anchor:middle" transform="scale(4.0128 .2492)" font-size="46.954px" y="-663.53998" x="556.72998" font-family="Arial"/>
 <text id="text131" style="word-spacing:0;letter-spacing:0" font-size="129.23px" line-height="125%" y="-259.60001" x="371.64001" font-family="Gentium Book Basic">
  <tspan id="tspan133" y="-259.60001" x="371.64001"/>
 </text>
 <text id="text135" style="text-anchor:middle" transform="scale(4.0128 .2492)" font-size="46.954px" y="-1390.89" x="289.69" font-family="Arial"/>
 <text id="text137" style="word-spacing:0;letter-spacing:0" font-size="129.23px" line-height="125%" y="-476.07001" x="1469.6899" font-family="Gentium Book Basic">
  <tspan id="tspan139" y="-476.07001" x="1469.6899"/>
 </text>
 <text id="text141" style="text-anchor:middle" transform="scale(4.0128 .2492)" font-size="46.954px" y="-2259.5601" x="563.33002" font-family="Arial"/>
 <text id="text143" style="word-spacing:0;letter-spacing:0" font-size="129.23px" line-height="125%" y="-556.08002" x="2050.96" font-family="Gentium Book Basic">
  <tspan id="tspan145" y="-556.08002" x="2050.96"/>
 </text>
 <text id="text147" style="text-anchor:middle" transform="scale(4.0128 .2492)" font-size="46.954px" y="-2580.6001" x="708.17999" font-family="Arial"/>
 <text id="text149" style="word-spacing:0;letter-spacing:0" font-size="129.23px" line-height="125%" y="-1028.48" x="1661.84" font-family="Gentium Book Basic">
  <tspan id="tspan151" y="-1028.48" x="1661.84"/>
 </text>
 <text id="text153" style="text-anchor:middle" transform="scale(4.0128 .2492)" font-size="46.954px" y="-4476.25" x="611.21002" font-family="Arial"/>
 <text id="text155" style="word-spacing:0;letter-spacing:0" font-size="129.23px" line-height="125%" y="-1108.48" x="2243.1001" font-family="Gentium Book Basic">
  <tspan id="tspan157" y="-1108.48" x="2243.1001"/>
 </text>
 <text id="text159" style="text-anchor:middle" transform="scale(4.0128 .2492)" font-size="46.954px" y="-4797.2798" x="756.06" font-family="Arial"/>
 <text id="text161" style="word-spacing:0;letter-spacing:0" font-size="208.33px" line-height="125%" y="306.23999" x="410.29999" font-family="Gentium Book Basic">
  <tspan id="tspan163" y="306.23999" x="410.29999"/>
 </text>
 <g id="g165" style="color:#000000">
  <path id="path167" opacity=".25" d="m66.75 56.75 51.53 51.53h-25.75v25.813l-51.53-51.527v346.88l25.813 25.813h-0.063l56.75 56.75h362.5c14.397 0 26-11.603 26-26v-362.5l-66.75-66.744h-378.5"/>
  <path id="path169" d="m66.746 56.748a25.767 25.767 0 0 0 -25.746 25.8v346.9a25.767 25.767 0 0 0 25.746 25.8h378.5a25.767 25.767 0 0 0 25.75 -25.8v-346.9a25.767 25.767 0 0 0 -25.75 -25.8h-378.5m25.8 51.55h137.71v119.69h-137.71v-119.7m189.21 0h137.72v119.7h-137.72v-119.7m-189.21 171.19h137.71v124.23h-137.71v-124.23m189.21 0h137.72v124.23h-137.72v-124.23" fill="#fff"/>
 </g>
</svg>
